!!!COM: Corelli, Arcangelo
!!!OPR: Sonata da chiesa
!!!OPS: 1
!!!ONM: 11
!!!OMV: 2
!!!OMD: Allegro
**kern	**fb	**kern	**kern	**kern
*part4	*part4	*part3	*part2	*part1
*staff4	*	*staff3	*staff2	*staff1
*I"Organo	*	*I"Violone	*I"Violino II	*I"Violino I
*clefF4	*	*clefF4	*clefG2	*clefG2
*k[b-]	*	*k[b-]	*k[b-]	*k[b-]
*d:	*	*d:	*d:	*d:
*M4/4	*	*M4/4	*M4/4	*M4/4
*met(c)	*	*met(c)	*met(c)	*met(c)
=1	=1	=1	=1	=1
1r	.	1r	1r	2aa
.	.	.	.	4gg#X
.	.	.	.	4ggn
=	=	=	=	=
1r	.	1r	1r	4ff#X
.	.	.	.	4ffn
.	.	.	.	2ee
=	=	=	=	=
1r	.	1r	2dd	16ddLL
.	.	.	.	16ee
.	.	.	.	16ff
.	.	.	.	16eeJJ
.	.	.	.	16ddLL
.	.	.	.	16ff
.	.	.	.	16ee
.	.	.	.	16ddJJ
.	.	.	4cc#X	8eeL
.	.	.	.	8aJ
.	.	.	4ccn	[4aa
=	=	=	=	=
1r	.	1r	4bn	4aa]
.	.	.	4b-X	2gg
.	.	.	4a	.
.	.	.	[4dd	4ff
=	=	=	=	=
1r	.	1r	4dd]	4ee
.	.	.	4cc	2aa
.	.	.	2bn	.
.	.	.	.	4gg#X
=	=	=	=	=
2A	.	2A	16aLL	8aaL
.	.	.	16bn	.
.	.	.	16cc	8ee
.	.	.	16bJJ	.
.	.	.	16aLL	8cc
.	.	.	16cc	.
.	.	.	16b	8ddJ
.	.	.	16aJJ	.
4G#X	6	4G#X	8bL	4ee
.	.	.	8eJ	.
4Gn	6 n	4Gn	[4ee	4bn
=	=	=	=	=
4F#X	7	4F#X	4ee]	2a
4Fn	6	4Fn	2dd	.
2E	7	2E	.	2g
.	#6\	.	4cc#X	.
=	=	=	=	=
2D	.	16DLL	4dd	4f
.	.	16E	.	.
.	.	16F	.	.
.	.	16EJJ	.	.
.	.	16DLL	4r	4ddd
.	.	16F	.	.
.	.	16E	.	.
.	.	16DJJ	.	.
4AA	#	8EL	4r	4ccc#X
.	.	8AAJ	.	.
4A	-	4A	[4aa	4cccn
=	=	=	=	=
2E	#5\ 4	2E	4aa]	4bbn
.	-r5 3	.	2gg	4bb-X
4.F	9 3	4.F	.	4aa
.	8 6	.	4ff	[4ddd
8G	7	8G	.	.
=	=	=	=	=
4A	5 4	4A	4ee	4ddd]
4AA	n	4AA	2aa	4ccc
2E	#5\ 4	2E	.	2bbn
.	#r3	.	4gg#X	.
=	=	=	=	=
4.AA	.	4.AA	4aa	8aaL
.	.	.	.	8eeJ
.	.	.	8r	[4aa
8AA	.	8AA	8cc	.
4.BBn	7	4.BBn	4.dd	8aaL]
.	6	.	.	(16ggL
.	.	.	.	16ffJJ)
.	.	.	.	[4gg
8C#X	5	8C#X	8ee	.
=	=	=	=	=
4.D	5 4	4.D	4.a	8ggL]
.	.	.	.	16ffL
.	.	.	.	16eeJJ
.	3	.	.	[4ff
8F	.	8F	8a	.
4.G	7	4.G	4.b-	8ffL]
.	-r6	.	.	(16ee-XL
.	.	.	.	16ddJJ)
.	.	.	.	[4ee-
8A	-r5	8A	8cc	.
=	=	=	=	=
4.B-	5 -4	4.B-	4.f	8ee-L]
.	.	.	.	(16ddL
.	.	.	.	16ccJJ)
.	3	.	.	[4dd
8F	6	8F	8a	.
4G	n	4G	8bnL	8ddL]
.	.	.	8ddJ	(16ggL
.	.	.	.	16ffJJ)
4A	5 4	4A	8.ddL	8.eenL
.	#	.	16cc#XJk	16eeJk
=	=	=	=	=
2D	.	2D	16ddLL	4dd
.	.	.	16ee	.
.	.	.	16ff	.
.	.	.	16eeJJ	.
.	.	.	16ddLL	4dd
.	.	.	16ff	.
.	.	.	16ee	.
.	.	.	16ddJJ	.
2AA	#	2AA	8eeL	4cc#X
.	.	.	8aJ	.
.	n	.	[4aa	4ccn
=	=	=	=	=
2E	#5\ 4	2E	4aa]	2bn
.	#	.	4gg#X	.
2A	.	2A	4aa	16aLL
.	.	.	.	16b
.	.	.	.	16cc
.	.	.	.	16bJJ
.	.	.	4aa	16aLL
.	.	.	.	16cc
.	.	.	.	16b
.	.	.	.	16aJJ
=	=	=	=	=
4E	#	4E	4gg#X	8bnL
.	.	.	.	8eJ
4C#X	-r5	4C#X	4ggn	[4ee
2D	9 #	2D	4ff#X	8eeL]
.	.	.	.	8aJ
.	8 -	.	4ffn	[4dd
=	=	=	=	=
2A	5 4	2A	2ee	4dd]
.	#	.	.	4cc#X
2D	-	2D	4dd	16ddLL
.	.	.	.	16ee
.	.	.	.	16ff
.	.	.	.	16eeJJ
.	.	.	4r	16ddLL
.	.	.	.	16ff
.	.	.	.	16ee
.	.	.	.	16ddJJ
=	=	=	=	=
2AA	#	2AA	16cc#XLL	16eeLL
.	.	.	16dd	16ff
.	.	.	16ee	16gg
.	.	.	16ddJJ	16ffJJ
.	.	.	16cc#LL	16eeLL
.	.	.	16ee	16gg
.	.	.	16dd	16ff
.	.	.	16cc#JJ	16eeJJ
2D	.	2D	16ddLL	16ffLL
.	.	.	16ee	16gg
.	.	.	16ff	16aa
.	.	.	16eeJJ	16ggJJ
.	.	.	16ddLL	16ffLL
.	.	.	16ff	16aa
.	.	.	16ee	16gg
.	.	.	16ddJJ	16ffJJ
=	=	=	=	=
2C	5	2C	16eeLL	16ggLL
.	.	.	16ff	16aa
.	.	.	16gg	16bb-
.	.	.	16ffJJ	16aaJJ
.	.	.	16eeLL	16ggLL
.	.	.	16gg	16bb-
.	.	.	16ff	16aa
.	.	.	16eeJJ	16ggJJ
4.F	.	4.F	16ffLL	8aaL
.	.	.	16ccni	.
.	.	.	16b-	8ffJ
.	.	.	16ccJJ	.
.	.	.	16aLL	[4ccc
.	.	.	16b-	.
8A	6	8A	16cc	.
.	.	.	16aJJ	.
=	=	=	=	=
4.B-	9	4.B-	16ddLL	4ccc]
.	.	.	16ee	.
.	.	.	16ff	.
.	.	.	16eeJJ	.
.	8	.	16ddLL	2bb-
.	.	.	16gg	.
8B-	6	8B-	16ff	.
.	.	.	16ggJJ	.
4c	7	4c	8eeL	.
.	.	.	8ccJ	.
4d	5	4d	[4ff	4aa
=	=	=	=	=
4B-	6 5	4B-	4ff]	2gg
4c	.	4c	4ee	.
2F	.	2F	16ffLL	4ff
.	.	.	16gg	.
.	.	.	16aa	.
.	.	.	16ggJJ	.
.	.	.	16ffLL	4r
.	.	.	16aa	.
.	.	.	16gg	.
.	.	.	16ffJJ	.
=	=	=	=	=
2C	5	2C	4ee	16ccLL
.	.	.	.	16dd
.	.	.	.	16ee
.	.	.	.	16ddJJ
.	.	.	4r	16ccLL
.	.	.	.	16ee
.	.	.	.	16dd
.	.	.	.	16ccJJ
2GG	-	2GG	16ggLL	4b-
.	.	.	16aa	.
.	.	.	16bb-	.
.	.	.	16aaJJ	.
.	.	.	16ggLL	4r
.	.	.	16bb-	.
.	.	.	16aa	.
.	.	.	16ggJJ	.
=	=	=	=	=
2D	n	2D	16ffLL	16ddLL
.	.	.	16gg	16ee
.	.	.	16aa	16ff
.	.	.	16ggJJ	16eeJJ
.	.	.	16ffLL	16ddLL
.	.	.	16aa	16ff
.	.	.	16gg	16ee
.	.	.	16ffJJ	16ddJJ
8AL	#	8AL	4ee	16cc#XLL
.	.	.	.	16a
8G	6 #4|	8G	.	16bn
.	.	.	.	16cc#JJ
8F	6	8F	[4dd	16ddLL
.	.	.	.	16ee
8EJ	7	8EJ	.	16ff
.	.	.	.	16ggJJ
=	=	=	=	=
8FL	6	8FL	4.dd]	8aaL
8G	5	8G	.	(16ggL
.	.	.	.	16ffJJ)
8A	5 4	8A	.	8.eeL
8AAJ	#	8AAJ	8cc#X	.
.	.	.	.	16eeJk
4DD	.	4DD	4.dd	8ddL
.	.	.	.	8aJ
4D	6	4D	.	[4b-Xi
.	.	.	8f	.
=	=	=	=	=
4C#X	7	4C#X	4.e	8b-L]
.	.	.	.	(16aL
.	.	.	.	16gJJ)
4Cn	6	4Cn	.	[4a
.	.	.	(16fLL	.
.	.	.	16eJJ)	.
4BBn	7	4BBn	4.d	8aL]
.	.	.	.	(16gL
.	.	.	.	16fJJ)
4BB-X	6	4BB-X	.	[4g
.	.	.	(16eLL	.
.	.	.	16dJJ)	.
=	=	=	=	=
1AA	7 #	1AA	8c#XL	8gL]
.	.	.	8AJ	(16aL
.	.	.	.	16gJJ)
.	6 4	.	2d	8fL
.	.	.	.	(16gL
.	.	.	.	16fJJ)
.	5 4	.	.	16eLL
.	.	.	.	16a
.	.	.	.	16g
.	.	.	.	16fJJ
.	#	.	4c#	8.eL
.	.	.	.	16eJk
=	=	=	=	=
4D	.	4D	4d	4d
4r	.	4r	4r	4dd
2r	.	2r	4r	4cc#X
.	.	.	4aa	4ccn
=	=	=	=	=
1r	.	1r	4gg#X	4bn
.	.	.	4ggn	4b-X
.	.	.	4ff#X	4a
.	.	.	4ffn	[4dd
=	=	=	=	=
1r	.	1r	4ee	4dd]
.	.	.	2aa	4cc
.	.	.	.	2bn
.	.	.	4gg#X	.
=	=	=	=	=
4AA	.	4AA	8aaL	16aLL
.	.	.	.	16bn
.	.	.	8a	16cc
.	.	.	.	16bJJ
4A	.	4A	8cc	16aLL
.	.	.	.	16cc
.	.	.	8ddJ	16b
.	.	.	.	16aJJ
4G#X	6	4G#X	4.ee	8bL
.	.	.	.	(16ccL
.	.	.	.	16ddJJ)
4Gn	6 n	4Gn	.	8eeL
.	.	.	8bn	8eeJ
=	=	=	=	=
4F#X	7	4F#X	4.a	8eeL
.	.	.	.	8aJ
4Fn	6	4Fn	.	2dd
.	.	.	(16b-XiLL	.
.	.	.	16aJJ)	.
2E	7	2E	4.g	.
.	#6\	.	.	4cc#X
.	.	.	(16aLL	.
.	.	.	16gJJ)	.
=	=	=	=	=
2D	.	2D	4f	16ddLL
.	.	.	.	16ee
.	.	.	.	16ff
.	.	.	.	16eeJJ
.	.	.	4r	16ddLL
.	.	.	.	16ff
.	.	.	.	16ee
.	.	.	.	16ddJJ
2AA	.	2AA	16aLL	8eeL
.	.	.	16bn	.
.	.	.	16cc	8aJ
.	.	.	16bJJ	.
.	.	.	16aLL	4aa
.	.	.	16cc	.
.	.	.	16b	.
.	.	.	16aJJ	.
=	=	=	=	=
4E	#	4E	8bnL	4gg#X
.	.	.	8eJ	.
4C#X	-r5	4C#X	[4ee	4ggn
2D	9 #	2D	8eeL]	4ff#X
.	.	.	8aJ	.
.	8 -	.	[4dd	4ffn
=	=	=	=	=
2AA	5 4	2AA	4dd]	2ee
.	#	.	4cc#X	.
2DD	.	2DD	2dd	2dd
=:|!	=:|!	=:|!	=:|!	=:|!
*-	*-	*-	*-	*-
!!!system-decoration: [{s1,s2},s3,s4]
!!!YEM: CC BY-NC-SA 4.0; CCARH; DCML
!!!RDF**kern: i = editorial accidental